X:1
T:Dear Companion
M:3/2
L:1/4
K:C
 z2 z A A c| e3 d c e| c A2 A A c| e3 ed/2-c/2 A| d3 A A c| e3 d c e|\
 c A2 A A e| d3e/2-d/2 c G| A3 z2 z|
